X:1
T:Title
%%score { ( 1 4 ) | ( 2 3 5 ) }
L:1/8
M:6/8
K:Ab
V:1 treble nm="Grand Piano"
V:4 treble 
V:2 bass 
V:3 bass 
V:5 bass 
V:1
 z3 z2[Q:1/4=92] [CE] | [CE][DF][CE] [CA][DB][Ec] | [Fd][Fd]d c2 [Ec] | cBA GAB | %4
[M:5/8] [CA]3 [A,EG]2 |[M:1/8] [DF] |[M:3/4] [CE][DF] [CE][CA] [DB][Ec] | [Fd][Fd] d c2 [Ec] | %8
 [EB][Ec] [EB][FA] [EG][=DF] |[M:5/8] E-E- E3 |[M:1/8] E |[M:3/4] B4 z2 | z2 z .E3 | %13
 [Ec]4 [DB][CA] |[M:5/8] [CA][DB][Ec] B2 |[M:1/8] E |[M:3/4] cc cA Bc |[M:7/8] [Fd][Fd][Fd] F3 F | %18
[M:3/4] EA AG AB |[M:5/8] [CA]-[CA]- [CA]3 |] %20
V:2
 z3 z2 [A,,A,] | [A,,A,][A,,A,][A,,A,] [A,,A,][A,,A,][A,,A,] | [D,A,][D,A,][F,A,F] [A,E]2 [A,,A,] | %3
 [E,A,E][E,D][E,C] [E,B,][E,C][E,D] |[M:5/8] E,3 z2 |[M:1/8] [A,,A,] | %6
[M:3/4] [A,,A,][A,,A,] [A,,A,][A,,A,] [A,,A,][A,,A,] | [D,A,][D,A,] [F,A,F] [A,E]2 [A,,A,] | %8
 [B,,G,][B,,A,] [B,,G,][B,,B,] [B,,B,][B,,A,] |[M:5/8] [E,G,]-[E,G,]- [E,G,]3 |[M:1/8] [E,G,] | %11
[M:3/4] D-[E,D-] [E,D-][E,D] [E,B,D][E,B,D] | z2 z .C3 | A,A, A,A, A,A, | %14
[M:5/8] [A,,A,][A,,A,][A,,A,] [E,G,E]2 |[M:1/8] [E,G,] |[M:3/4] [A,E][A,E] [A,E][A,C] [A,D][A,E] | %17
[M:7/8] [D,A,][D,A,][D,A,] [D,A,D]3 [D,A,D] |[M:3/4] [E,A,C][E,C] [E,C][E,B,] [E,C][E,D] | %19
[M:5/8] [A,,E,]-[A,,E,]- [A,,E,]3 |] %20
V:3
 x6 | x6 | x6 | x6 |[M:5/8] A,,-A,,- A,,3 |[M:1/8] x |[M:3/4] x6 | x6 | x6 |[M:5/8] x5 |[M:1/8] x | %11
[M:3/4] .[E,G,]2 z2 z2 | z2 [A,,A,]2 z2 | x6 |[M:5/8] x5 |[M:1/8] x |[M:3/4] x6 |[M:7/8] x7 | %18
[M:3/4] x6 |[M:5/8] x5 |] %20
V:4
 x6 | x6 | x6 | x6 |[M:5/8] x5 |[M:1/8] x |[M:3/4] x6 | x6 | x6 |[M:5/8] x5 |[M:1/8] x | %11
[M:3/4] z G, G,G, FG | [CA][EG] .[DF]2 A,[A,CE] | x6 |[M:5/8] x5 |[M:1/8] x |[M:3/4] x6 | %17
[M:7/8] x7 |[M:3/4] x6 |[M:5/8] x5 |] %20
V:5
 x6 | x6 | x6 | x6 |[M:5/8] x5 |[M:1/8] x |[M:3/4] x6 | x6 | x6 |[M:5/8] x5 |[M:1/8] x | %11
[M:3/4] x6 | [A,,A,][A,,A,] z2 A,,A,, | x6 |[M:5/8] x5 |[M:1/8] x |[M:3/4] x6 |[M:7/8] x7 | %18
[M:3/4] x6 |[M:5/8] x5 |] %20

